**kern	**kern	**dynam
*part1	*part1	*part1
*staff2	*staff1	*
*I"Piano	*	*
*clefF4	*clefG2	*
*k[f#c#]	*k[f#c#]	*
=1	=1	=1
*^	*^	*
(4BB 4D	2.GG]	2.G] 2.g]	(4B 4d	p >
2AA#X) 2C#	.	.	2A#X) 2c#	]
*	*	*v	*v	*
=	=	=	=
!	!	!	!LO:DY:a
4rBB	[2.FF#	[2.F# [2.f#	p
4rBB	.	.	.
(16GG#XLL	.	.	.
16AA#X	.	.	.
16BB	.	.	.
16C#JJ)	.	.	.
*v	*v	*	*
=	=	=
((2.FF#_ 2.BB 2.D	((2.F#_ 2.B 2.d 2.f#_	pp
=	=	=
2.FF#;])) 2.AA#X 2.C#	2.F#;])) 2.A#X 2.c# 2.f#]	.
=	=	=
4BBB 4FF# 4BB	4F# 4B 4d 4f#	p
4BBB 4FF# 4BB	4F# 4B 4d 4f#	.
4BBB 4FF# 4BB	4F# 4B 4d 4f#	.
=	=	=
2.CC# 2.FF# 2.C#	2.F# 2.A#X 2.e 2.f#	>
=	=	=
4BBB 4BB	4F# 4B 4d 4f#	]
4DD 4D	4F# 4B 4d 4f#	.
4BBB 4BB	4F# 4B 4d 4f#	.
=	=	=
2.FFF# 2.FF#	2.F# 2.A#X 2.c# 2.f#	>
=	=	=
4.FF# 4.C# 4.F#	4.c# 4.f# 4.a#X 4.cc#	] >
8FF# 8C# 8F#	8c# 8f# 8a#	]
4FF#; 4C# 4F#	4A#X; 4c# 4f#	.
=	=	=
*-	*-	*-
!!!system-decoration: {(s1,s2)}
